apps/web/src/images/integrations/logo-ping-identity-badge-color.svg

<svg width="600" height="600" fill="none" xmlns="http://www.w3.org/2000/svg"><g clip-path="url(#a)"><path d="M550 50H50v500h500V50Z" fill="#BC1F27"/><path d="M189.729 254.224c-8.827-5.282-16.984-8.157-43.76-8.157h-41.461v166.795h31.767v-61.424h17.369c17.466 0 24.28-1.92 31.477-5.568 17.177-8.639 27.16-26.392 27.16-48.461.098-19.195-7.871-34.55-22.552-43.185Zm-15.832 61.223c-4.318 7.01-8.158 8.639-21.115 8.639h-16.507v-50.864h20.155c13.341 0 21.306 9.403 21.306 24.95 0 7.867-1.152 12.761-3.839 17.275Zm-69.385 113.149h7.296v67.656h-7.296v-67.656Zm82.913 17.274c-5.469 0-9.979 2.206-13.627 6.814-3.839 4.893-5.469 10.269-5.469 18.525 0 16.314 7.581 26.101 20.154 26.101 5.854 0 11.323-2.205 15.355-6.143l-2.782-4.894c-3.165 3.166-6.719 4.608-11.13 4.608-4.412 0-8.734-1.728-11.323-6.05-1.536-2.59-2.112-6.139-2.112-10.747v-1.152h28.311v-1.058c-.191-11.707-1.245-16.409-5.179-20.726-2.978-3.358-7.197-5.278-12.189-5.278h-.009Zm-10.841 21.307c.384-10.171 4.032-15.261 10.462-15.261 3.455 0 6.621 1.634 8.157 4.322 1.339 2.398 2.014 5.661 2.112 10.939h-20.731Zm70.443-13.913c.768 1.724 1.054 3.742 1.054 5.76v37.237h-7.198v-33.205c0-5.184-.384-6.528-1.629-8.158-.96-1.245-2.88-2.111-4.988-2.111-3.648 0-9.309 3.165-12.573 6.907v36.563h-6.911V458.35c0-7.006-1.724-10.368-1.724-10.368l6.907-2.112s1.63 3.648 1.63 7.68c4.701-5.085 9.501-7.581 14.301-7.581 4.893.098 9.309 2.973 11.131 7.295ZM221.689 256.14c0-11.038 8.639-19.865 19.002-19.865s18.329 8.926 18.329 19.865c0 10.939-8.448 19.962-18.807 19.962-10.358 0-18.524-8.925-18.524-19.962Zm3.456 35.991 30.325-5.09v125.722h-30.325V292.131Zm42.608 155.088h11.707l-2.206 5.849h-9.791v31.674c0 5.469 1.344 7.291 5.853 7.291 2.014 0 1.438 0 2.782-.67l.96 4.894c-2.304 1.25-3.166 1.634-6.336 1.634-2.398 0-4.219-.482-5.947-1.344-3.166-1.634-4.416-4.8-4.416-9.787v-33.688h-5.947v-5.849h5.952v-18.618h7.291v18.618h.098v-.004Zm-108.537-18.623h-7.104v16.314c0 3.555.094 7.582.094 7.582-2.688-3.938-7.197-6.238-12.283-6.238-3.264 0-5.853.862-8.733 3.072-6.237 4.608-9.403 12.288-9.403 22.744 0 15.645 6.715 24.856 18.52 24.856 5.278 0 8.734-1.629 11.993-5.759.098 2.594.96 4.987.96 4.987h7.291c-1.054-2.88-1.344-7.389-1.344-15.833v-51.73l.009.005Zm-7.202 55.181s-.866 2.117-2.781 3.554c-2.88 2.304-4.992 3.166-8.734 3.166-4.224 0-7.005-1.63-9.117-5.755-1.442-2.88-1.822-7.104-1.822-12.864 0-6.907.768-10.461 2.88-14.202 1.92-3.358 4.894-5.09 8.448-5.09 5.375 0 8.733 1.629 11.037 5.09v26.101h.098-.009Zm219.485-36.656-15.547 50.864c-3.072 9.885-6.715 16.412-14.685 18.426l-2.112-5.184c4.416-1.536 6.715-3.643 8.738-9.023a304.684 304.684 0 0 0-1.152-5.568c-.58-3.165-2.978-12.765-4.509-17.658l-9.89-30.71 7.01-2.59 9.309 31.862c1.344 4.608 2.688 12.189 2.688 12.189h.192s1.728-6.336 2.782-10.367l8.925-32.246h8.251v.005Zm6.139 40.21c0-1.728-.96-2.402-2.88-2.402h-2.88v8.162h1.443v-3.55h.861l2.018 3.456h1.438l-2.014-3.554c1.246-.098 2.014-.768 2.014-2.107v-.005Zm-4.224 1.054v-2.304h1.246c.768 0 1.536.192 1.536 1.152 0 1.054-.768 1.25-1.536 1.25h-1.246v-.098Zm1.157-6.523c-3.742 0-6.814 3.264-6.814 7.197 0 3.934 3.072 7.198 6.814 7.198 3.741 0 6.813-3.26 6.813-7.198-.098-4.032-3.072-7.197-6.813-7.197Zm0 12.957c-2.88 0-5.09-2.402-5.09-5.76 0-3.357 2.304-5.759 5.09-5.759s5.085 2.397 5.085 5.759c0 3.362-2.304 5.76-5.085 5.76Zm73.416-113.346-16.315-.192c-3.165 0-4.987-1.245-4.987-2.879 0-3.358 4.317-6.238 11.993-10.078 2.303.291 3.165.291 4.509.291 24.664 0 42.899-15.355 42.899-36.47 0-8.157-2.304-14.394-6.814-20.154 1.822.192 4.992.674 7.966.674 8.349 0 14.685-2.688 21.306-9.117l-12.667-20.44c-7.005 6.719-15.64 10.559-23.994 10.559-3.835 0-7.965-.96-14.301-2.688-8.349-2.112-14.297-3.072-20.824-3.072-29.652 0-48.944 16.315-48.944 41.559 0 18.235 8.157 29.464 24.954 34.067-19.096 5.282-21.307 12.766-21.307 20.637 0 8.443 3.358 13.917 8.827 16.029 5.47 2.398 14.302 3.55 27.928 3.84l12.957.286c11.998.192 21.307 3.647 21.307 14.685 0 5.085-2.978 9.599-7.488 12.479-4.795 3.166-11.323 4.032-18.998 4.032-14.015 0-21.784-5.282-21.784-15.163 0-3.358.192-4.987 1.344-7.872h-28.12c-1.152 2.398-2.688 5.76-2.688 12.475 0 8.35 3.166 15.547 9.502 21.785 10.461 10.367 27.445 13.242 43.956 13.242 18.137 0 35.603-4.317 45.774-15.837 6.331-7.197 9.31-15.069 9.31-25.427 0-11.042-3.166-19.48-9.979-26.2-8.35-7.97-17.659-10.845-35.318-11.042l-.004-.009Zm-29.656-51.913c0-11.515 6.622-18.234 18.136-18.234 11.515 0 18.329 6.719 18.329 18.234s-6.523 17.467-18.619 17.467c-10.653.098-17.85-4.894-17.85-17.467h.004Zm-86.663-14.591c-6.144 0-14.016 4.318-21.115 11.037v86.851h-30.419v-89.061c0-10.559-1.344-20.637-4.032-28.79l26.968-8.157c2.688 5.086 4.318 10.269 4.318 15.355 4.509-3.362 8.349-6.238 13.336-9.117 6.144-3.358 14.016-5.278 20.829-5.278 12.957 0 24.28 7.197 27.928 17.757 1.634 4.509 2.304 9.787 2.304 17.467v89.73h-29.942v-79.939c0-13.725-2.205-17.851-10.175-17.851v-.004Zm-15.547 138.005v31.665c0 5.47 1.344 7.296 5.853 7.296 2.014 0 1.438 0 2.782-.675l.96 4.894c-2.304 1.246-3.166 1.634-6.331 1.634-2.402 0-4.228-.482-5.952-1.344-3.17-1.629-4.416-4.8-4.416-9.791V452.97h-5.951v-5.858h5.951v-18.619h7.296v18.619h11.421l-2.21 5.858h-9.403v.004Zm-28.982-5.666 7.39-1.246v50.19h-7.39v-48.944Z" fill="#fff"/></g><defs><clipPath id="a"><path fill="#fff" transform="translate(50 50)" d="M0 0h500v500H0z"/></clipPath></defs></svg>

<svg width="600" height="600" viewBox="0 0 600 600" fill="none" xmlns="http://www.w3.org/2000/svg">
<g clip-path="url(#clip0_8165_408)">
<path d="M550 50H50V550H550V50Z" fill="#BC1F27"/>
<path d="M189.729 254.224C180.902 248.942 172.745 246.067 145.969 246.067H104.508V412.862H136.275V351.438H153.644C171.11 351.438 177.924 349.518 185.121 345.87C202.298 337.231 212.281 319.478 212.281 297.409C212.379 278.214 204.41 262.859 189.729 254.224ZM173.897 315.447C169.579 322.457 165.739 324.086 152.782 324.086H136.275V273.222H156.43C169.771 273.222 177.736 282.625 177.736 298.172C177.736 306.039 176.584 310.933 173.897 315.447ZM104.512 428.596H111.808V496.252H104.512V428.596ZM187.425 445.87C181.956 445.87 177.446 448.076 173.798 452.684C169.959 457.577 168.329 462.953 168.329 471.209C168.329 487.523 175.91 497.31 188.483 497.31C194.337 497.31 199.806 495.105 203.838 491.167L201.056 486.273C197.891 489.439 194.337 490.881 189.926 490.881C185.514 490.881 181.192 489.153 178.603 484.831C177.067 482.241 176.491 478.692 176.491 474.084V472.932H204.802V471.874C204.611 460.167 203.557 455.465 199.623 451.148C196.645 447.79 192.426 445.87 187.434 445.87H187.425ZM176.584 467.177C176.968 457.006 180.616 451.916 187.046 451.916C190.501 451.916 193.667 453.55 195.203 456.238C196.542 458.636 197.217 461.899 197.315 467.177H176.584ZM247.027 453.264C247.795 454.988 248.081 457.006 248.081 459.024V496.261H240.883V463.056C240.883 457.872 240.499 456.528 239.254 454.898C238.294 453.653 236.374 452.787 234.266 452.787C230.618 452.787 224.957 455.952 221.693 459.694V496.257H214.782V458.35C214.782 451.344 213.058 447.982 213.058 447.982L219.965 445.87C219.965 445.87 221.595 449.518 221.595 453.55C226.296 448.465 231.096 445.969 235.896 445.969C240.789 446.067 245.205 448.942 247.027 453.264ZM221.689 256.14C221.689 245.102 230.328 236.275 240.691 236.275C251.054 236.275 259.02 245.201 259.02 256.14C259.02 267.079 250.572 276.102 240.213 276.102C229.855 276.102 221.689 267.177 221.689 256.14ZM225.145 292.131L255.47 287.041V412.763H225.145V292.131ZM267.753 447.219H279.46L277.254 453.068H267.463V484.742C267.463 490.211 268.807 492.033 273.316 492.033C275.33 492.033 274.754 492.033 276.098 491.363L277.058 496.257C274.754 497.507 273.892 497.891 270.722 497.891C268.324 497.891 266.503 497.409 264.775 496.547C261.609 494.913 260.359 491.747 260.359 486.76V453.072H254.412V447.223H260.364V428.605H267.655V447.223H267.753V447.219ZM159.216 428.596H152.112V444.91C152.112 448.465 152.206 452.492 152.206 452.492C149.518 448.554 145.009 446.254 139.923 446.254C136.659 446.254 134.07 447.116 131.19 449.326C124.953 453.934 121.787 461.614 121.787 472.07C121.787 487.715 128.502 496.926 140.307 496.926C145.585 496.926 149.041 495.297 152.3 491.167C152.398 493.761 153.26 496.154 153.26 496.154H160.551C159.497 493.274 159.207 488.765 159.207 480.321V428.591L159.216 428.596ZM152.014 483.777C152.014 483.777 151.148 485.894 149.233 487.331C146.353 489.635 144.241 490.497 140.499 490.497C136.275 490.497 133.494 488.867 131.382 484.742C129.94 481.862 129.56 477.638 129.56 471.878C129.56 464.971 130.328 461.417 132.44 457.676C134.36 454.318 137.334 452.586 140.888 452.586C146.263 452.586 149.621 454.215 151.925 457.676V483.777H152.023H152.014ZM371.499 447.121L355.952 497.985C352.88 507.87 349.237 514.397 341.267 516.411L339.155 511.227C343.571 509.691 345.87 507.584 347.893 502.204C347.125 498.364 346.741 496.636 346.741 496.636C346.161 493.471 343.763 483.871 342.232 478.978L332.342 448.268L339.352 445.678L348.661 477.54C350.005 482.148 351.349 489.729 351.349 489.729H351.541C351.541 489.729 353.269 483.393 354.323 479.362L363.248 447.116H371.499V447.121ZM377.638 487.331C377.638 485.603 376.678 484.929 374.758 484.929H371.878V493.091H373.321V489.541H374.182L376.2 492.997H377.638L375.624 489.443C376.87 489.345 377.638 488.675 377.638 487.336V487.331ZM373.414 488.385V486.081H374.66C375.428 486.081 376.196 486.273 376.196 487.233C376.196 488.287 375.428 488.483 374.66 488.483H373.414V488.385ZM374.571 481.862C370.829 481.862 367.757 485.126 367.757 489.059C367.757 492.993 370.829 496.257 374.571 496.257C378.312 496.257 381.384 492.997 381.384 489.059C381.286 485.027 378.312 481.862 374.571 481.862ZM374.571 494.819C371.691 494.819 369.481 492.417 369.481 489.059C369.481 485.702 371.785 483.3 374.571 483.3C377.357 483.3 379.656 485.697 379.656 489.059C379.656 492.421 377.352 494.819 374.571 494.819ZM447.987 381.473L431.672 381.281C428.507 381.281 426.685 380.036 426.685 378.402C426.685 375.044 431.002 372.164 438.678 368.324C440.981 368.615 441.843 368.615 443.187 368.615C467.851 368.615 486.086 353.26 486.086 332.145C486.086 323.988 483.782 317.751 479.272 311.991C481.094 312.183 484.264 312.665 487.238 312.665C495.587 312.665 501.923 309.977 508.544 303.548L495.877 283.108C488.872 289.827 480.237 293.667 471.883 293.667C468.048 293.667 463.918 292.707 457.582 290.979C449.233 288.867 443.285 287.907 436.758 287.907C407.106 287.907 387.814 304.222 387.814 329.466C387.814 347.701 395.971 358.93 412.768 363.533C393.672 368.815 391.461 376.299 391.461 384.17C391.461 392.613 394.819 398.087 400.288 400.199C405.758 402.597 414.59 403.749 428.216 404.039L441.173 404.325C453.171 404.517 462.48 407.972 462.48 419.01C462.48 424.095 459.502 428.609 454.992 431.489C450.197 434.655 443.669 435.521 435.994 435.521C421.979 435.521 414.21 430.239 414.21 420.358C414.21 417 414.402 415.371 415.554 412.486H387.434C386.282 414.884 384.746 418.246 384.746 424.961C384.746 433.311 387.912 440.508 394.248 446.746C404.709 457.113 421.693 459.988 438.204 459.988C456.341 459.988 473.807 455.671 483.978 444.151C490.309 436.954 493.288 429.082 493.288 418.724C493.288 407.682 490.122 399.244 483.309 392.524C474.959 384.554 465.65 381.679 447.991 381.482L447.987 381.473ZM418.331 329.56C418.331 318.045 424.953 311.326 436.467 311.326C447.982 311.326 454.796 318.045 454.796 329.56C454.796 341.075 448.273 347.027 436.177 347.027C425.524 347.125 418.327 342.133 418.327 329.56H418.331ZM331.668 314.969C325.524 314.969 317.652 319.287 310.553 326.006V412.857H280.134V323.796C280.134 313.237 278.79 303.159 276.102 295.006L303.07 286.849C305.758 291.935 307.388 297.118 307.388 302.204C311.897 298.842 315.737 295.966 320.724 293.087C326.868 289.729 334.74 287.809 341.553 287.809C354.51 287.809 365.833 295.006 369.481 305.566C371.115 310.075 371.785 315.353 371.785 323.033V412.763H341.843V332.824C341.843 319.099 339.638 314.973 331.668 314.973V314.969ZM316.121 452.974V484.639C316.121 490.109 317.465 491.935 321.974 491.935C323.988 491.935 323.412 491.935 324.756 491.26L325.716 496.154C323.412 497.4 322.55 497.788 319.385 497.788C316.983 497.788 315.157 497.306 313.433 496.444C310.263 494.815 309.017 491.644 309.017 486.653V452.97H303.066V447.112H309.017V428.493H316.313V447.112H327.734L325.524 452.97H316.121V452.974ZM287.139 447.308L294.529 446.062V496.252H287.139V447.308Z" fill="white"/>
</g>
<defs>
<clipPath id="clip0_8165_408">
<rect width="500" height="500" fill="white" transform="translate(50 50)"/>
</clipPath>
</defs>
</svg>
